Catalina-light/actions/16/transform-shear-right.svg

<svg width="16" height="16" viewBox="0 0 16 16" xmlns="http://www.w3.org/2000/svg">
<defs>
<style id="current-color-scheme" type="text/css">.ColorScheme-Text { color:#5c616c; } .ColorScheme-Highlight { color:#5294e2; }</style>
</defs>
<path class="ColorScheme-Text" d="m5 1v4h8.2461l-1.1113 5h2.8652v-9h-10zm-2 5-2 9h9l2-9h-9z" fill="currentColor"/>
</svg>

<svg xmlns="http://www.w3.org/2000/svg" width="16" height="16" viewBox="0 0 16 16">
 <defs>
  <style id="current-color-scheme" type="text/css">
   .ColorScheme-Text { color:#5c616c; } .ColorScheme-Highlight { color:#5294e2; }
  </style>
 </defs>
 <path style="fill:currentColor" class="ColorScheme-Text" d="M 5 1 L 5 5 L 13.246094 5 L 12.134766 10 L 15 10 L 15 1 L 5 1 z M 3 6 L 1 15 L 10 15 L 12 6 L 3 6 z"/>
</svg>
